X:16369
T:Tempest of War,The. BC.04
M:C|
L:1/8
Q:180
S:Benjamin Cooke MS.circa 1770, F.Kidson Coll.
R:March
O:England
A:x
N:Is this a bad translation of "Tempesta Di Mare"(Storm at Sea) Opus 8 &
N:Opus 10. By Vivaldi  Anybody know the tuneCGP.
Z:vmp.John Bagnall
K:G
GA | B2 Bc d2 cB | A2 AB c2 BA | G2 GA B2 AG | D2 DD D2 :|!:
Bc | d2 ((3gfe) d2 AB | c2 ((3edc) B3 c | BdBG AcAF | G2 GG G2 :|]
